static/graph/robot-queued.svg

<?xml version="1.0" encoding="UTF-8"?>
<svg width="1200pt" height="1200pt" version="1.1" viewBox="0 0 1200 1200" xmlns="http://www.w3.org/2000/svg">
 <path d="m957.09 810.9 123.36 123.36c6.3828 6.3711 14.855 9.7578 23.496 9.7578 4.2969 0 8.6523-0.83984 12.793-2.5547 12.48-5.1836 20.543-17.258 20.543-30.77v-535.78c0-35.426-28.812-64.246-64.246-64.246h-518.73c-35.426 0-64.246 28.824-64.246 64.246v371.73c0 35.426 28.824 64.246 64.246 64.246zm-431.04-64.246v-371.74c0-15.574 12.684-28.246 28.246-28.246h518.75c15.574 0 28.246 12.684 28.246 28.246l0.003906 529.29-119.53-119.53c-6.2891-6.2891-14.652-9.7578-23.543-9.7578h-403.91c-15.578-0.011718-28.262-12.684-28.262-28.258z" fill="#fff"/>
 <path d="m677.14 128.88v127.8h36v-127.8c0-35.398-28.801-64.211-64.211-64.211h-518.75c-35.398 0-64.211 28.801-64.211 64.211v535.8c0 13.441 8.0273 25.477 20.449 30.672 4.1758 1.7539 8.543 2.6055 12.875 2.6055 8.6289 0 17.113-3.3594 23.566-9.7422l123.36-123.36h189.82v-36h-191.04c-8.8203 0-17.184 3.4922-23.52 9.8281l-119.52 119.52v-529.32c0-15.551 12.66-28.211 28.211-28.211h518.75c15.578 0.011719 28.227 12.66 28.227 28.211z" fill="#fff"/>
 <path d="m481.22 1135.3c0-77.473-63.023-140.5-140.5-140.5h-91.188c-77.461 0-140.48 63.023-140.48 140.5h36c0-57.625 46.871-104.5 104.48-104.5h91.188c57.625 0 104.5 46.871 104.5 104.5z" fill="#fff"/>
 <path d="m413.79 979.23c29.773 0 54-24.227 54-54v-112.5c0-29.773-24.227-54-54-54h-244.71c-29.773 0-54 24.227-54 54v112.5c0 29.773 24.227 54 54 54zm-262.71-54v-112.5c0-9.9258 8.0742-18 18-18h244.7c9.9258 0 18 8.0742 18 18v112.5c0 9.9258-8.0742 18-18 18h-244.7c-9.9219 0-18-8.0742-18-18z" fill="#fff"/>
 <path d="m210.12 826.5h36v84.973h-36z" fill="#fff"/>
 <path d="m342.28 826.5h36v84.973h-36z" fill="#fff"/>
 <path d="m62.711 828.2h36v81.562h-36z" fill="#fff"/>
 <path d="m491.55 828.2h36v81.562h-36z" fill="#fff"/>
 <path d="m705.9 566.09c0 20.578-16.68 37.258-37.258 37.258s-37.262-16.68-37.262-37.258 16.684-37.262 37.262-37.262 37.258 16.684 37.258 37.262z" fill="#fff"/>
 <path d="m850.93 566.09c0 20.578-16.684 37.258-37.262 37.258s-37.262-16.68-37.262-37.258 16.684-37.262 37.262-37.262 37.262 16.684 37.262 37.262z" fill="#fff"/>
 <path d="m995.96 566.09c0 20.578-16.684 37.258-37.262 37.258s-37.258-16.68-37.258-37.258 16.68-37.262 37.258-37.262 37.262 16.684 37.262 37.262z" fill="#fff"/>
</svg>

<?xml version="1.0" encoding="UTF-8" standalone="no"?>
<!DOCTYPE svg PUBLIC "-//W3C//DTD SVG 1.1//EN" "http://www.w3.org/Graphics/SVG/1.1/DTD/svg11.dtd">
<svg width="100%" height="100%" viewBox="0 0 1200 1200" version="1.1" xmlns="http://www.w3.org/2000/svg" xmlns:xlink="http://www.w3.org/1999/xlink" xml:space="preserve" xmlns:serif="http://www.serif.com/" style="fill-rule:evenodd;clip-rule:evenodd;stroke-linejoin:round;stroke-miterlimit:2;">
    <path d="M735,310.667L1073.04,310.667C1108.47,310.667 1137.28,339.487 1137.28,374.913L1137.28,910.693C1137.28,924.205 1129.22,936.28 1116.74,941.463C1112.6,943.178 1108.24,944.018 1103.95,944.018C1095.31,944.018 1086.83,940.631 1080.45,934.26L957.09,810.9L554.306,810.889C518.884,810.889 490.06,782.069 490.06,746.643L490.06,584L526.05,584L526.05,746.654L526.051,746.658C526.051,762.232 538.735,774.904 554.313,774.916L958.223,774.916C967.114,774.916 975.477,778.385 981.766,784.674L1101.3,904.204L1101.29,374.914C1101.29,359.352 1088.62,346.668 1073.05,346.668L735,346.668L735,310.667Z" style="fill:white;fill-rule:nonzero;"/>
    <path d="M735,310.667L735,346.668" style="fill:none;"/>
    <g transform="matrix(-0.999923,0,0,0.999902,1203.16,-245.968)">
        <path d="M957.09,810.9L1080.45,934.26C1086.83,940.631 1095.31,944.018 1103.95,944.018C1108.24,944.018 1112.6,943.178 1116.74,941.463C1129.22,936.28 1137.28,924.205 1137.28,910.693L1137.28,374.913C1137.28,339.487 1108.47,310.667 1073.04,310.667L554.306,310.667C518.88,310.667 490.06,339.491 490.06,374.913L490.06,746.643C490.06,782.069 518.884,810.889 554.306,810.889L957.09,810.9ZM526.05,746.654L526.05,374.914C526.05,359.34 538.734,346.668 554.296,346.668L1073.05,346.668C1088.62,346.668 1101.29,359.352 1101.29,374.914L1101.3,904.204L981.766,784.674C975.477,778.385 967.114,774.916 958.223,774.916L554.313,774.916C538.735,774.904 526.051,762.232 526.051,746.658L526.05,746.654Z" style="fill:white;fill-rule:nonzero;"/>
    </g>
    <path d="M481.22,1135.3C481.22,1057.83 418.197,994.8 340.72,994.8L249.532,994.8C172.071,994.8 109.052,1057.82 109.052,1135.3L145.052,1135.3C145.052,1077.67 191.923,1030.8 249.532,1030.8L340.72,1030.8C398.345,1030.8 445.22,1077.67 445.22,1135.3L481.22,1135.3Z" style="fill:white;fill-rule:nonzero;"/>
    <path d="M413.79,979.23C443.563,979.23 467.79,955.003 467.79,925.23L467.79,812.73C467.79,782.957 443.563,758.73 413.79,758.73L169.08,758.73C139.307,758.73 115.08,782.957 115.08,812.73L115.08,925.23C115.08,955.003 139.307,979.23 169.08,979.23L413.79,979.23ZM151.08,925.23L151.08,812.73C151.08,802.804 159.154,794.73 169.08,794.73L413.78,794.73C423.706,794.73 431.78,802.804 431.78,812.73L431.78,925.23C431.78,935.156 423.706,943.23 413.78,943.23L169.08,943.23C159.158,943.23 151.08,935.156 151.08,925.23Z" style="fill:white;fill-rule:nonzero;"/>
    <rect x="210.12" y="826.5" width="36" height="84.973" style="fill:white;fill-rule:nonzero;"/>
    <rect x="342.28" y="826.5" width="36" height="84.973" style="fill:white;fill-rule:nonzero;"/>
    <rect x="62.711" y="828.2" width="36" height="81.562" style="fill:white;fill-rule:nonzero;"/>
    <rect x="491.55" y="828.2" width="36" height="81.562" style="fill:white;fill-rule:nonzero;"/>
</svg>
